assets/build/img/icons/camera.svg

<?xml version="1.0" encoding="UTF-8"?>
<svg width="14px" height="14px" viewBox="0 0 14 14" version="1.1" xmlns="http://www.w3.org/2000/svg" xmlns:xlink="http://www.w3.org/1999/xlink">
    <!-- Generator: sketchtool 51.3 (57544) - http://www.bohemiancoding.com/sketch -->
    <title>F7EAA834-308C-4C8F-88B4-A0644D4C7839</title>
    <desc>Created with sketchtool.</desc>
    <defs></defs>
    <g id="Symbols" stroke="none" stroke-width="1" fill="none" fill-rule="evenodd">
        <g id="icon/blue/fotos" transform="translate(-1.000000, -1.000000)" fill="#0d2345" fill-rule="nonzero">
            <g id="noun_Camera_1560874" transform="translate(1.000000, 1.000000)">
                <path d="M11.6666667,2.33333333 L10.276875,2.33333333 L9.594375,0.966875 C9.29945421,0.372900736 8.69274227,-0.00198278366 8.02958333,-9.52939171e-16 L5.97041667,-9.52939171e-16 C5.30725773,-0.00198278366 4.70054579,0.372900736 4.405625,0.966875 L3.723125,2.33333333 L2.33333333,2.33333333 C1.04466892,2.33333333 1.2952602e-16,3.37800225 0,4.66666667 L0,11.6666667 C1.2952602e-16,12.9553311 1.04466892,14 2.33333333,14 L11.6666667,14 C12.9553311,14 14,12.9553311 14,11.6666667 L14,4.66666667 C14,3.37800225 12.9553311,2.33333333 11.6666667,2.33333333 Z M12.8333333,11.6666667 C12.8333333,12.3109989 12.3109989,12.8333333 11.6666667,12.8333333 L2.33333333,12.8333333 C1.68900113,12.8333333 1.16666667,12.3109989 1.16666667,11.6666667 L1.16666667,4.66666667 C1.16666667,4.02233446 1.68900113,3.5 2.33333333,3.5 L4.08333333,3.5 C4.30436686,3.50015825 4.5065042,3.37537514 4.60541667,3.17770833 L5.44979167,1.48895833 C5.54846886,1.29176097 5.74990854,1.16706021 5.97041667,1.16666667 L8.02958333,1.16666667 C8.25009146,1.16706021 8.45153114,1.29176097 8.55020833,1.48895833 L9.39458333,3.17770833 C9.4934958,3.37537514 9.69563314,3.50015825 9.91666667,3.5 L11.6666667,3.5 C12.3109989,3.5 12.8333333,4.02233446 12.8333333,4.66666667 L12.8333333,11.6666667 Z" id="Shape"></path>
                <path d="M7,5.25 C5.38916948,5.25 4.08333333,6.55583615 4.08333333,8.16666667 C4.08333333,9.77749719 5.38916948,11.0833333 7,11.0833333 C8.61083052,11.0833333 9.91666667,9.77749719 9.91666667,8.16666667 C9.91666667,7.39311857 9.60937588,6.65125299 9.06239478,6.10427189 C8.51541367,5.55729078 7.7735481,5.25 7,5.25 Z M7,9.91666667 C6.03350169,9.91666667 5.25,9.13316498 5.25,8.16666667 C5.25,7.20016835 6.03350169,6.41666667 7,6.41666667 C7.96649831,6.41666667 8.75,7.20016835 8.75,8.16666667 C8.75,9.13316498 7.96649831,9.91666667 7,9.91666667 Z" id="Shape"></path>
            </g>
        </g>
    </g>
</svg>

<svg width="14" height="14" xmlns="http://www.w3.org/2000/svg"><g fill="#0d2345"><path d="M11.667 2.333h-1.39L9.594.967A1.741 1.741 0 0 0 8.03 0H5.97a1.741 1.741 0 0 0-1.564.967l-.683 1.366h-1.39A2.333 2.333 0 0 0 0 4.667v7A2.333 2.333 0 0 0 2.333 14h9.334A2.333 2.333 0 0 0 14 11.667v-7a2.333 2.333 0 0 0-2.333-2.334zm1.166 9.334c0 .644-.522 1.166-1.166 1.166H2.333a1.167 1.167 0 0 1-1.166-1.166v-7c0-.645.522-1.167 1.166-1.167h1.75a.583.583 0 0 0 .522-.322l.845-1.689a.583.583 0 0 1 .52-.322h2.06c.22 0 .422.125.52.322l.845 1.689a.583.583 0 0 0 .522.322h1.75c.644 0 1.166.522 1.166 1.167v7z"/><path d="M7 5.25a2.917 2.917 0 1 0 0 5.833A2.917 2.917 0 0 0 7 5.25zm0 4.667a1.75 1.75 0 1 1 0-3.5 1.75 1.75 0 0 1 0 3.5z"/></g></svg>
